!!!!SEGMENT: pl-sa--172-a-v-2--003_szczurowski-jacek--msza-swiateczna-et-in-terra.krn
!!!cenid: 17xx:263
!!!COM: Szczurowski, Jacek
!!!COM-rismid: pe30017605
!!!CDT: 1716/08/15-~1733
!!!CNT: Polish
!!!OPR: Msza świąteczna
!!!OTL: Et in terra
!!!OMV: 003
!!!PDT:
!!!AGN: Sacred; Mass
!!!SMS-siglum: PL-SA
!!!SMS-shelfmark: 172/A V 2
!!!SMS-shelfwork: 001-003 M
!!!NIFC-rismid:
!!!URL-scan: http://bc.bdsandomierz.pl/dlibra/publication/1506/edition/1474/content
!!!ONB-nifc: UWAGA: części Mszy: Kyrie, Christe, Et in terra, Laudamus, Qui tollis, Quoniam, Patrem, Et Incarnatus, Ressurexit, Sanctus, Osanna, Benedictus, Agnus Dei
!!!key:
**kern	**fba	**kern	**kern	**kern	**text	**kern	**text	**kern	**kern
*part7	*	*part6	*part5	*part4	*part4	*part3	*part3	*part2	*part1
*	*	*group3	*group3	*group2	*	*group2	*	*group1	*group1
*staff7	*	*staff6	*staff5	*staff4	*staff4	*staff3	*staff3	*staff2	*staff1
*Iorgan	*	*Ivioln	*Ivioln	*Isoprn	*	*Isoprn	*	*Icor	*Icor
*I"Organo:	*	*I"Violino 2:d:	*I"Violino: Primo	*I"Soprano 2:do:	*	*I"Soprano Primo.	*	*I"Corno 2.do Ex D:	*I"Corno Primo Ex D:
*I'org	*	*I'vl II	*I'vl I	*I'S II	*	*I'S I	*	*I'cor II in D	*I'cor I in D
*clefF4	*	*clefG2	*clefG2	*clefC1	*	*clefC1	*	*clefG2	*clefG2
*	*	*	*	*	*	*	*	*ITrd6c10	*ITrd6c10
*k[f#c#]	*	*k[f#c#]	*k[f#c#]	*k[f#c#]	*	*k[f#c#]	*	*k[f#c#]	*k[f#c#]
*D:	*	*D:	*D:	*D:	*	*D:	*	*D:	*D:
*M2/4	*	*M2/4	*M2/4	*M2/4	*	*M2/4	*	*M2/4	*M2/4
=1	=1	=1	=1	=1	=1	=1	=1	=1	=1
*	*	*	*	*	*	*	*	*2\right	*2\right
!LO:TX:a:t=Adagio	!	!LO:TX:a:t=adagio	!	!LO:TX:a:t=adagio	!	!LO:TX:a:t=Adagio	!	!LO:TX:a:t=adagio	!LO:TX:a:t=adagio
!	!	!LO:TX:b:t=Et incarnatus:problem= błąd w nazwie części	!	!LO:TX:a:t=P:problem=znaki przykluczowe zapisane po metrum	!	!	!	!	!
!LO:TX:a:t=P:problem=krzyżyki przy kluczu zapisane Cis Fis	!	!	!	!LO:TX:a:t=P:problem=krzyżyki przy kluczu zapisane jeden nad drugim, cis oktawę wyżej	!	!LO:TX:a:t=P:problem=krzyżyki przy kluczu zapisane jeden nad drugim, cis oktawę wyżej	!	!	!
!	!	!	!	!LO:TX:a:t=P:problem=pojedyncze ósemki i szesnastki mają chorągiewki z lewej strony kreski	!	!LO:TX:a:t=P:problem=pojedyncze ósemki i szesnastki mają chorągiewki z lewej strony kreski	!	!	!
8.D\L	.	8.f#/L	8.dd\L	8.f#/	Et	8.dd\	Et	2d\	2f#\
16D\K	.	16cc#/K	16dd\K	16f#/	in	16dd\	in	.	.
8.F#\	6	8.cc#/	8.dd\	8.f#/	ter-	8.dd\	ter-	.	.
16F#\Jk	.	16cc#/Jk	16dd\Jk	16f#/	-ra	16dd\	-ra	.	.
=2	=2	=2	=2	=2	=2	=2	=2	=2	=2
8.G\L	.	8.b/L	8.dd\L	4b\	pax	4dd\	pax	2d\	2b\
16G\K	.	16b/K	16dd\K	.	.	.	.	.	.
8.G\	.	8.b/	8.dd\	4b\	ho-	4dd\	ho-	.	.
16G\Jk	.	16b/Jk	16dd\Jk	.	.	.	.	.	.
=3	=3	=3	=3	=3	=3	=3	=3	=3	=3
8.G#X\L	5	8.b/L	8.dd\L	4.b\	-mi-	4.dd\	-mi-	4.d\	4.b\
16G#\K	.	16b/K	16dd\K	.	.	.	.	.	.
8.G#\	.	8.b/	8.dd\	.	.	.	.	.	.
.	.	.	.	8dd\	-ni-	8ffn\	-ni-	8d\	8b\
16G#\Jk	.	16b/Jk	16dd\Jk	.	.	.	.	.	.
=4	=4	=4	=4	=4	=4	=4	=4	=4	=4
!	!	!	!LO:N:vis=4	!	!	!LO:N:vis=4.	!	!LO:TX:b:t=P:problem=w zapisie fermaty brak kropki	!LO:TX:a:t=P:problem=w zapisie fermaty brak kropki
4.A;\	.	4.cc#;\	4.ee;\	4.cc#;\	-bus	4ee;\	-bus	4.A;</	4.a;\
.	.	.	.	.	.	8r	.	.	.
!	!	!LO:TX:a:t=allo	!	!LO:TX:a:t=allo	!	!LO:TX:a:t=allo	!	!LO:TX:a:t=allo	!LO:TX:a:t=allo
8D/	.	8ff#\	8aa\	8ff#\	bo-	8aa\	bo-	8f#\	8a\
=5	=5	=5	=5	=5	=5	=5	=5	=5	=5
!LO:TX:a:t=allo	!	!	!	!	!	!	!	!	!
8D/L	.	8ff#\L	8aa\L	8ff#\	.	8aa\	.	8f#\L	8a\L
8D/	.	16ee\L	16gg\L	16ee\LL	-nae	16gg\LL	-ne	16e\L	16g\L
.	.	16dd\JJ	16ff#\JJ	16dd\JJ	.	16ff#\JJ	.	16d\JJ	16f#\JJ
8D/	.	8ff#\L	8aa\L	8ff#\	vo-	8aa\	vo-	8f#\L	8a\L
!	!	!	!	!	!	!LO:LB:g=original	!	!	!
8D/J	.	16ee\L	16gg\L	16ee\LL	-lun-	16gg\LL	-lun-	16e\L	16g\L
.	.	16dd\JJ	16ff#\JJ	16dd\JJ	.	16ff#\JJ	.	16d\JJ	16f#\JJ
=6	=6	=6	=6	=6	=6	=6	=6	=6	=6
!	!	!LO:TX:a:t=P:problem=mixed beam	!	!	!	!	!	!	!
8AA/L	.	8ee\L	8gg\L	8ee\L	-ta-	8gg\L	-ta-	4e\	4g\
8AA/	.	8cc#\	8ee\	8cc#\J	.	8ee\J	.	.	.
8D/	.	8dd\	8ff#\	8dd\	-tis	8ff#\	-tis	8d\	8f#\
8D/J	.	8f#/J	8a\J	8r	.	8r	.	8r	8r
!	!	!	!	!LO:LB:g=original	!	!	!	!	!
=7	=7	=7	=7	=7	=7	=7	=7	=7	=7
!LO:TX:a:t=P:problem=dwa nadmiarowe takty	!	!LO:TX:a:t=P:problem=dwa nadmiarowe takty w organach	!LO:TX:a:t=P:problem=dwa nadmiarowe takty w organach	!LO:TX:a:t=P:problem=dwa nadmiarowe takty w organach	!	!LO:TX:a:t=P:problem=dwa nadmiarowe takty w organach	!	!LO:TX:a:t=P:problem=dwa nadmiarowe takty w organach	!LO:TX:a:t=P:problem=dwa nadmiarowe takty w organach
8D/L	.	2ryy	2ryy	2ryy	.	2ryy	.	2ryy	2ryy
8D/	.	.	.	.	.	.	.	.	.
8D/	.	.	.	.	.	.	.	.	.
8D/J	.	.	.	.	.	.	.	.	.
=8	=8	=8	=8	=8	=8	=8	=8	=8	=8
8AA/L	.	2ryy	2ryy	2ryy	.	2ryy	.	2ryy	2ryy
8AA/	.	.	.	.	.	.	.	.	.
8D/	.	.	.	.	.	.	.	.	.
8D/J	.	.	.	.	.	.	.	.	.
=9	=9	=9	=9	=9	=9	=9	=9	=9	=9
!	!	!	!	!	!	!	!	!LO:TX:a:t=2:problem= łuczek nad nutą	!LO:TX:a:t=2:problem= łuczek nad nutą
!	!	!	!	!	!	!	!	!LO:N:vis=0	!LO:N:vis=0
8D/L	.	8f#/L	8a/L	8a\	bo-	8ff#\	bo-	1r	1r
8D/	.	16e/L	16g/L	16g\LL	-nae	16ee\LL	-nae	.	.
.	.	16d/JJ	16f#/JJ	16f#\JJ	.	16dd\JJ	.	.	.
8D/	.	8f#/L	8a/L	8a\	vo-	8ff#\	vo-	.	.
8D/J	.	16e/L	16g/L	16g\LL	-lun-	16ee\LL	-lun-	.	.
.	.	16d/JJ	16f#/JJ	16f#\JJ	.	16dd\JJ	.	.	.
!	!	!LO:LB:g=original	!	!	!	!	!	!	!
=10	=10	=10	=10	=10	=10	=10	=10	=10	=10
8AA/L	.	8e/L	8g/L	8g/L	-ta-	8ee\L	-ta-	.	.
!	!	!	!LO:SIC:s=4e:v	!	!	!	!	!	!
8AA/	.	8c#/	8f#/	8e/J	.	8cc#\J	.	.	.
8D/	.	8d/	8f#/	8f#/	-tis	8dd\	-tis	.	.
8D/J	.	8A/J	8A/J	8r	.	8r	.	.	.
=11	=11	=11	=11	=11	=11	=11	=11	=11	=11
!	!	!	!	!LO:TX:a:t=adagio	!	!	!	!	!
!	!	!LO:TX:a:t=adagio	!LO:TX:a:t=adagio	!	!	!LO:TX:a:t=adagio	!	!	!LO:TX:a:t=adagio
8G#X\L	-7	16ffn\LL	16ffn\LL	4dd\	vo-	4ffn\	vo-	2d\	2fX\
.	.	16ff\	16ff\	.	.	.	.	.	.
!LO:TX:a:t=ada-	!	!	!	!	!	!	!	!	!
8G#\	.	16ff\	16ff\	.	.	.	.	.	.
.	.	16ff\JJ	16ff\JJ	.	.	.	.	.	.
8G#\	.	16ff\LL	16ff\LL	4dd\	-lun-	4ff\	-lun-	.	.
.	.	16ff\	16ff\	.	.	.	.	.	.
8G#\J	.	16ff\	16ff\	.	.	.	.	.	.
.	.	16ff\JJ	16ff\JJ	.	.	.	.	.	.
!LO:LB:g=original	!	!	!LO:LB:g=original	!	!	!	!	!	!
=12	=12	=12	=12	=12	=12	=12	=12	=12	=12
!LO:TX:a:t=-gio	!	!	!	!	!	!	!	!	!
!LO:TX:a:t=P:problem=mixed beam	!	!	!	!	!	!	!	!	!
8A\L	.	16ffn\LL	16ffn\LL	16dd\LL	-ta-	16ffn\LL	-ta-	16.d/LL	16fX\LL
.	.	16ee\J	16ee\J	16cc#\JJ	.	16ee\JJ	.	.	16e\J
.	.	.	.	.	.	.	.	32A/JK	.
8AA;</J	.	8ee;\J	8ee;\J	8cc#'\	-tis	8ee\	-tis	8A/J	8e\J
8r	.	8r	8r	8r	.	8r	.	8r	8r
!LO:TX:a:t=allo	!	!	!LO:TX:a:t=allo	!	!	!	!	!LO:TX:a:t=allo	!LO:TX:a:t=allo
8Gn\	.	8ee\	8gg\	16ee\	vo-	16gg\	vo-	8e\	8g\
.	.	.	.	16ee\	-lun-	16gg\	-lun-	.	.
=13	=13	=13	=13	=13	=13	=13	=13	=13	=13
!LO:TX:a:t=P:problem=mixed beam	!	!LO:TX:a:t=allo	!	!	!	!	!	!	!
8A\L	.	16dd\LL	16ff#X\LL	4dd\	-ta-	4ff#X\	-ta-	8d/L	8f#X\L
.	.	16dd\	16ff#\	.	.	.	.	.	.
8A\	.	16dd\	16ff#\	.	.	.	.	8d/	8f#\
.	.	16dd\JJ	16ff#\JJ	.	.	.	.	.	.
8AA/	.	16cc#\LL	16ee\LL	4cc#\	.	4ee\	.	8A/	8e\
.	.	16cc#\	16ee\	.	.	.	.	.	.
8AA/J	.	16cc#\	16ee\	.	.	.	.	8A/J	8e\J
.	.	16cc#\JJ	16ee\JJ	.	.	.	.	.	.
!	!	!	!	!	!	!LO:LB:g=original	!	!	!
=14	=14	=14	=14	=14	=14	=14	=14	=14	=14
!	!	!LO:TX:a:t=P:problem=zakończenie bez znaku repetycji	!	!	!	!	!	!	!
4D/	.	4f#/	4dd\	4dd\	-tis	4dd\	-tis	4F#/	4d\
!LO:TX:b:t=Laudamus Verte Cito	!	!	!	!	!	!	!	!	!LO:TX:a:t=P:problem=zakończenie bez znaku repetycji
4r	.	4r	4r	4r	.	4r	.	4r	4r
=:|!	=:|!	=:|!	=:|!	=:|!	=:|!	=:|!	=:|!	=:|!	=:|!
=!|:	=!|:	=!|:	=!|:	=!|:	=!|:	=!|:	=!|:	=!|:	=!|:
*-	*-	*-	*-	*-	*-	*-	*-	*-	*-
!!!system-decoration: [g1][g2][g3]s7
!!!RDF**kern: > = above
!!!RDF**kern: < = below
!!!AIN: 2 cor 1 organ 2 soprn 2 violn
!!!ENC: Marta Lawrence
!!!END: 2020-09-21
!!!ENC: Kamil Watkowski
!!!END: 2020-04-15
